X:484
%%etbk:tnset id:203,pos:1,rep:3x,ant:
T:The Rising of the Moon
H: Created 2013-07-07 /  Modified 2013-07-07
R: song
L:1/4
K: Dmaj
DE |: "D"FFFF | F<A AF | "A"FEE>D | E2 AA |
"G"BGdc | "D"B>A FD | "A"EDD>E | "D"D2 DE :|


